X:1
T:I. Introït et Kyrie
T: Gabriel Fauré (1845 - 1924)
T:Requiem (op. 48), 1900 ed.
T:I. Introït et Kyrie
T:Coro 
T:( Introitus et Kyrie)
C:Gabriel Fauré (1845 - 1924)
%%score [ 1 2 ( 3 4 ) ( 5 6 ) ]
L:1/8
Q:1/4=40
M:4/4
K:Dmin
V:1 treble nm="Soprano" snm="S"
V:2 treble nm="Alto" snm="A"
V:3 treble-8 nm="Tenore" snm="T"
V:4 treble-8 
V:5 bass nm="Basso" snm="B"
V:6 bass 
V:1
"^Molto largo" z8 |"^sostenuto"!pp! (A2 A2 A3 A | A4 A4) |"^sempre"!pp! z4 (A2 A2 | A2 A2 c3 c | %5
w: |Re- qui- em ae-|ter- nam|do- na|e- is, Do- mi-|
 c6) z2 | z2!<(! d2 d2 d2!<)! |!f! f3 f f4 |"^sempre"!f! z2 d2 _e2 e2- | e z z2 z2!>(! B2 | %10
w: ne,|et lux per-|pe- tu- a|lu- ce- at,|_ lu-|
!p! c2!>)! c3 z z2 | z8 |!pp! z2 (_E2 F2 F2 | _G4 _A4) |!ppp! z2 (A2 A2 A2 | A8 | %16
w: ce- at,||lu- ce- at|e- is,|lu- ce- at|e-|
 !fermata!A4) !fermata!z4 ||[Q:1/4=72]"^Andante moderato" z8 | z8 | z8 | z8 | z8 | z8 | z8 | z8 | %25
w: is.|||||||||
 z8 | z8 | z8 | z8 | z8 | z8 | z8 | z8 | z8 | z8 | z8 | z8 | z8 || z8 | z8 | z8 | %41
w: ||||||||||||||||
"^dolce"!p! ((F2 B2) A2 B2 | (e2 d2) c2) (d2 | B2 A2 G4 | F6) z2 | (F2 B2 A2 B2 | %46
w: Te _ de- cet|hym- * nus, De-|us, in Si-|on,|et ti- bi red-|
 (_e2 d2) c2) (d2 | B2 cd d3 ^c | d4) z4 ||!ff!"^tutti" f2 f4!>(! c2!>)! |!p! A2 A4!<(! d2!<)! | %51
w: de- * tur vo-|tum in Je- ru- sa-|lem.|Ex- au- di,|ex- au- di|
!ff! (f2 ff!>(! f2 c2!>)! |!p! F4 F4) |"^sempre"!ff! z2 (^f4 ^c2) | A2 (A4 A2 | B6 F2 | A3 A A4) | %57
w: o- ra- ti- o- nem|me- am;|ad _|te om- nis|ca- ro|ve- ni- et,|
 z2"^dim." B4 F2 |!p!!>(! A6 A2!>)! |!pp! A6 A2 | A2 z2 z4 || z8 |"^dolce espessivo" (d3 d A4 | %63
w: om- nis|ca- ro|ve- ni-|et.||Ky- ri- e,|
 c3 c A4) | (d3 d A2 A2 | c3 c A4) | (F2 A2 d2 f2 |!f! c3 c c2) B2 |!>(! A3 A A2 d2!>)! | %69
w: Ky- ri- e,|Ky- ri- e e-|le- i- son.|Ky- ri- e e-|le- i- son, e-|le- i- son, e-|
!p! d3 d A4 |!ff! z2 !>!_e4!>(! e2!>)! |!p! A4 A4 |!ff! z2 _e2!>(! e2 e2!>)! |!p! A3 A A4 | %74
w: le- i- son.|Chris- te,|Chris- te,|Chris- te e-|le- i- son.|
"^sempre"!pp! z2 B4 A2 | z2 ^G4 E2 | z2 (F2 F2 E2 | D4) z4 | z8 | z8 |!pp! z2 (F2 E2) E2 | D4 z4 | %82
w: Chris- te,|Chris- te|e- le- i-|son,|||Ky- * ri-|e|
 z8 | z8 | z2 (F2 _E2 E2) | D8- | D6 z2 | z8 | z2 (D2 D2 D2 |!>(! D8-!>)! | !fermata!D8) |] %91
w: ||e- le- i-|son,|_||e- le- i-|son.|_|
V:2
 z8 |"^sostenuto"!pp! (F2 F2 F3 F | F4 F4) |"^sempre"!pp! z4 (A2 A2 | A2 A2 A3 A | A6) z2 | %6
w: |Re- qui- em ae-|ter- nam|do- na|e- is, Do- mi-|ne,|
 z2!<(! B2 B2 B2!<)! |!f! c3 c c4 |"^sempre"!f! z2 B2 B2 B2- | B z z2 z2!>(! G2 | %10
w: et lux per-|pe- tu- a|lu- ce- at,|_ lu-|
!p! A2!>)! A3 z z2 | z8 |!pp! z2 (B,2 C2 C2 | _D4 F4) |!ppp! z2 (F2 F2 F2 | (E4 =B,4) | %16
w: ce- at,||lu- ce- at|e- is,|lu- ce- at|e- *|
 !fermata!^C4) !fermata!z4 || z8 | z8 | z8 | z8 | z8 | z8 | z8 | z8 | z8 | z8 | z8 | z8 | z8 | z8 | %31
w: is.|||||||||||||||
 z8 | z8 | z8 | z8 | z8 | z8 |!>(! z8!>)! || z8 | z8 | z8 | z8 | z8 | z8 | z8 | z8 | z8 | z8 | %48
w: |||||||||||||||||
 z8 ||!ff! c2"^tutti" c4!>(! A2!>)! |!p! F2 F4!<(! A2!<)! |!ff! (c2 cc!>(! c2 A2!>)! |!p! F4 F4) | %53
w: |Ex- au- di,|ex- au- di|o- ra- ti- o- nem|me- am;|
"^sempre"!ff! z2 (^c4 A2) | F2 (F4 F2 | F6 F2 | F3 F F4) | z2"^dim." F4 F2 |!p!!>(! F6 C2!>)! | %59
w: ad _|te om- nis|ca- ro|ve- ni- et,|om- nis|ca- ro|
!pp! ^C6 C2 | D2 z2 z4 || z8 |"^dolce espessivo" (d3 d A4 | c3 c A4) | (d3 d A2 A2 | c3 c A4) | %66
w: ve- ni-|et.||Ky- ri- e,|Ky- ri- e,|Ky- ri- e e-|le- i- son.|
!<(!!<(! (A,2 D2 F2 A2!<)!!<)! |!f! c3 c c2) B2 |!>(! A3 A A2 D2!>)! |!p! D2 G2 A4 | %70
w: Ky- ri- e e-|le- i- son, e-|le- i- son, e-|le- i- son.|
!ff! z2 !>!^F4!>(! F2!>)! |!p! G4 G4 |!ff! z2 ^F2!>(! F2 F2!>)! |!p! G3 G G4 | %74
w: Chris- te,|Chris- te,|Chris- te e-|le- i- son.|
"^sempre"!pp! z2 F4 F2 | z2 E4 E2 | z2 (C2 C2 ^C2 | D4) z4 | z8 | z8 |!pp! z2 (F2 E2) E2 | D4 z4 | %82
w: Chris- te,|Chris- te|e- le- i-|son,|||Ky- * ri-|e|
 z8 | z8 | z2 (F2 _E2 E2) | D8- | D6 z2 | z8 | z2 (D2 D2 D2 |!>(! D8-!>)! | !fermata!D8) |] %91
w: ||e- le- i-|son,|_||e- le- i-|son.|_|
V:3
 z8 |"^sostenuto"!pp! (d2 d2 d3 d | d4 d4) |"^sempre"!pp! z4 (e2 e2 | e2 e2 f3 f | f6) z2 | %6
w: |Re- qui- em ae-|ter- nam|do- na|e- is, Do- mi-|ne,|
 z2!<(! f2 f2 f2!<)! |!f! f3 f f4 |"^sempre"!f! z2 d2 _e2 e2 | e z z2 z2!>(! B2 | %10
w: et lux per-|pe- tu- a|lu- ce- at,|_ lu-|
!p! c2!>)! c3 z z2 | z8 |!pp! z2 (G2 A2 A2 | B4 _c4) |!ppp! z2 (A2 A2 A2 | (G4 F4) | %16
w: ce- at,||lu- ce- at|e- is,|lu- ce- at|e- *|
 !fermata!E4) !fermata!z4 || z8 | z8 |"^dolce espressivo"!p! (d3 d A3 A | c4 A4) | (d3 d A2 A2 | %22
w: is.|||Re- qui- em ae-|ter- nam|do- na e- is,|
 c3 c A4) |!<(! (F2 A2) d2 f2!<)! |!f! c3 c c2 (B2 | A2 (A4 d2) |!>(! d4!>)! A4) | z8 | z8 | %29
w: Do- mi- ne,|et _ lux per-|pe- tu- a lu-|ce- at _|e- is.|||
"^dolce" (d3 d A3 A | c4 A4) |!<(! (F2 A2) (d2 f2)!<)! |!f! (e3 e e2 (df) | e3 d c2) z2 | %34
w: Re- qui- em ae-|ter- nam|do- * na, _|do- na e- is, _|Do- mi- ne,|
"^sempre"!f! z2 (c2 c2 (=BA) | c3 c c2 B2 | A2 A2 (A2 ^G2) |!p! A2) z2 z4 || z8 | z8 | z8 | z8 | %42
w: et- lux per- *|pe- tu- a lu-|ce- at e- *|is.|||||
 z8 | z8 | z8 | z8 | z8 | z8 | z8 ||!ff!"^tutti" f2 f4!>(! f2!>)! |!p! d2 d4!<(! f2!<)! | %51
w: |||||||Ex- au- di,|ex- au- di|
!ff! (f2 ff!>(! f2 f2!>)! |!p! ^c4 c4) |"^sempre"!ff! z2 ^f6 | ^e2 (^c4 c2 | ^c6 c2 | ^c3 c c4) | %57
w: o- ra- ti- o- nem|_ _|ad|te om- nis|ca- ro|ve- ni- et,|
 z2"^dim." _d4 d2 |!p!!>(! c6 A2!>)! |!pp! A6 A2 | F2 z2 z4 || z8 |"^dolce espessivo" (d3 d A4 | %63
w: om- nis|ca- ro|ve- ni-|et.||Ky- ri- e,|
 c3 c A4) | d3 d A2 A2 | c3 c A4 | z4!<(! (A2 d2)!<)! |!f! f2 c2 d2 e2 |!>(! e3 e d2 (de)!>)! | %69
w: Ky- ri- e,|Ky- ri- e e-|le- i- son.|e- *|le- i- son, e-|le- i- son, e- *|
!p! f2 d2 _d4 |!ff! z2!>(! !>!c4 c2!>)! |!p! _d4 d4 |!ff! z2 c2!>(! c2 c2!>)! |!p! _d3 d d4 | %74
w: le- i- son.|Chris- te,|Chris- te,|Chris- te e-|le- i- son.|
"^sempre"!pp! z2 B4 c2 | z2 c4 c2 | z2 (A2 A2 G2 | F4) z4 | z8 | z8 |!pp! z2 (F2 E2) E2 | D4 z4 | %82
w: Chris- te,|Chris- te|e- le- i-|son,|||Ky- * ri-|e|
 z8 | z8 | z2 (F2 _E2 E2) | D8- | D6 z2 | z8 | z2 (D2 D2 D2 |!>(! D8-!>)! | !fermata!D8) |] %91
w: ||e- le- i-|son,|_||e- le- i-|son.|_|
V:4
 x8 | A2 A2 A3 A | A4 A4 | z4 c2 c2 | c2 c2 c3 c | c6 z2 | z2 d2 d2 d2 | c3 c c4 | z2 B2 B2 B2- | %9
 B z z2 z2 B2 | x8 | x8 | x8 | x8 | x8 | x8 | x8 || x8 | x8 | x8 | x8 | x8 | x8 | x8 | x8 | x8 | %26
 x8 | x8 | x8 | x8 | x8 | x8 | x8 | x8 | x8 | x8 | x8 | x8 || x8 | x8 | x8 | x8 | x8 | x8 | x8 | %45
 x8 | x8 | x8 | x8 || c2 c4 c2 | d2 d4 d2 | c2 cc c2 c2 | x8 | z2 ^c6 | ^c2 c4 c2 | x8 | x8 | x8 | %58
 x8 | x8 | x8 || x8 | x8 | x8 | x8 | x8 | x8 | x8 | x8 | x8 | x8 | x8 | x8 | x8 | x8 | x8 | x8 | %77
 x8 | x8 | x8 | x8 | x8 | x8 | x8 | x8 | x8 | x8 | x8 | x8 | x8 | x8 |] %91
V:5
 z8 |"^sostenuto"!pp! (F,2 F,2 F,3 F, | F,4 F,4) |"^sempre"!pp! z4 (A,2 A,2 | A,2 A,2 A,3 A, | %5
w: |Re- qui- em ae-|ter- nam|do- na|e- is, Do- mi-|
 A,6) z2 | z2!<(! B,2 B,2 B,2!<)! |!f! C3 C C4 |"^sempre"!f! z2 B,2 B,2 B,2- | B, z z2 z2!>(! G,2 | %10
w: ne,|et- lux per-|pe- tu- a|lu- ce- at,|_ lu-|
!p! A,2!>)! A,3 z z2 | z8 |!pp! z2 (E,2 _E,2 E,2 | _D,4 D,4) |!ppp! z2 (C,2 C,2 C,2 | (^C,4 D,4) | %16
w: ce- at,||lu- ce- at|e- is,|lu- ce- at|e- *|
 !fermata!A,,4) !fermata!z4 || z8 | z8 | z8 | z8 | z8 | z8 | z8 | z8 | z8 | z8 | z8 | z8 | z8 | %30
w: is.||||||||||||||
 z8 | z8 | z8 | z8 | z8 | z8 | z8 | z8 || z8 | z8 | z8 | z8 | z8 | z8 | z8 | z8 | z8 | z8 | z8 || %49
w: |||||||||||||||||||
!ff!"^tutti" A,2 A,4!>(! A,2!>)! |!p! A,2 A,4!<(! A,2!<)! |!ff! (A,2 A,A,!>(! A,2 A,2!>)! | %52
w: Ex- au- di,|ex- au- di|o- ra- ti- o- nem|
!p! A,4 A,4) |"^sempre"!ff! z2 A,6 | A,2 (A,4 A,2 | F,6 B,2 | A,3 A, A,4) | z2"^dim." F,4 B,2 | %58
w: me- am;|ad|te om- nis|ca- ro|ve- ni- et,|om- nis|
!p!!>(! A,6 F,2!>)! |!pp! F,6 F,2 | D,2 z2 z4 || z8 | z8 | z8 | z8 | z8 | %66
w: ca- ro|ve- ni-|et.||||||
!<(! (D,2 F,2 A,2 A,2!<)! |!f! A,3 A, F,2) C2 |!>(! C3 C F,2 G,2!>)! |!p! A,2 =B,2 A,4 | %70
w: Ky- ri- e e-|le- i- son, e-|le- i- son, e-|le- i- son.|
!ff! z2 !>!A,4!>(! A,2!>)! |!p! A,4 A,4 |!ff! z2 A,2!>(! A,2!>)! A,2 |!p! A,3 A, A,4 | %74
w: Chris- te,|Chris- te,|Chris- te e-|le- i- son.|
"^sempre"!pp! (D,3 E,) F,4 | (C,3 D,) E,4 | z2 (A,,2 A,,2 A,,2 | D,4) z4 | z8 | z8 | %80
w: Chris- * te,|Chris- * te|e- le- i-|son,|||
!pp! z2 (F,2 E,2) E,2 | D,4 z4 | z8 | z8 | z2 (F,2 _E,2 E,2) | D,8- | D,6 z2 | z8 | %88
w: Ky- * ri|e|||e- le- i-|son,|_||
 z2 (D,2 D,2 D,2 |!>(! D,8-!>)! | !fermata!D,8) |] %91
w: e- le- i-|son.|_|
V:6
 x8 | D,2 D,2 D,3 D, | D,4 D,4 | z4 C,2 C,2 | C,2 C,2 C,3 C, | C,6 z2 | z2 F,2 F,2 F,2 | %7
 F,3 F, F,4 | z2 F,2 _E,2 E,2- | E, z z2 z2 G,2 | x8 | x8 | x8 | x8 | x8 | x8 | x8 || x8 | x8 | %19
 x8 | x8 | x8 | x8 | x8 | x8 | x8 | x8 | x8 | x8 | x8 | x8 | x8 | x8 | x8 | x8 | x8 | x8 | x8 || %38
 x8 | x8 | x8 | x8 | x8 | x8 | x8 | x8 | x8 | x8 | x8 || x8 | x8 | x8 | x8 | x8 | x8 | F,6 F,2 | %56
 F,3 F, F,4 | z2 F,4 F,2 | F,6 F,2 | A,,6 A,,2 | x8 || x8 | x8 | x8 | x8 | x8 | x8 | x8 | x8 | x8 | %70
 x8 | x8 | x8 | x8 | x8 | x8 | x8 | x8 | x8 | x8 | x8 | x8 | x8 | x8 | x8 | x8 | x8 | x8 | x8 | %89
 x8 | x8 |] %91

